icon_installer/data/icons/scalable/actions/show-list-symbolic.svg

<?xml version="1.0" encoding="UTF-8"?>
<svg height="16px" viewBox="0 0 16 16" width="16px" xmlns="http://www.w3.org/2000/svg">
    <path d="m 2.386719 3 c -0.214844 0 -0.386719 0.167969 -0.386719 0.378906 v 3.242188 c 0 0.210937 0.171875 0.378906 0.386719 0.378906 h 3.230469 c 0.210937 0 0.382812 -0.167969 0.382812 -0.378906 v -3.242188 c 0 -0.210937 -0.171875 -0.378906 -0.382812 -0.378906 z m 5.613281 1 v 2 h 6 v -2 z m -5.613281 5 c -0.214844 0 -0.386719 0.167969 -0.386719 0.378906 v 3.222656 c 0 0.207032 0.171875 0.378907 0.386719 0.378907 h 3.230469 c 0.210937 0 0.382812 -0.171875 0.382812 -0.378907 v -3.222656 c 0 -0.210937 -0.171875 -0.378906 -0.382812 -0.378906 z m 5.613281 0.984375 v 2 h 6 v -2 z m 0 0" fill="#222222"/>
</svg>

<svg xmlns="http://www.w3.org/2000/svg" width="16" height="16"><path fill="#222" d="M2.387 3A.381.381 0 0 0 2 3.379V6.62c0 .211.172.379.387.379h3.23A.38.38 0 0 0 6 6.621V3.38A.38.38 0 0 0 5.617 3zM8 4v2h6V4zM2.387 9A.381.381 0 0 0 2 9.379v3.223c0 .207.172.378.387.378h3.23A.382.382 0 0 0 6 12.602V9.379A.38.38 0 0 0 5.617 9zM8 9.984v2h6v-2zm0 0"/></svg>
